X:0375
T:Calimbe.
C:West India.
M:2/4
L:1/8
Q:1/4=120
I: :: ::
Z:Jack Campin * www.campin.me.uk * 2009
K:G
GB   GB|GB   dc/B/|Ac    Ac|Ac   ed/c/|\
GB   GB|GB   dc/B/|cB    AA|G2   G2  :|
dd  Td2|e.c .c.c  |e>e  Te2|gd  .d.d  |\
g>g Tg2|e>c .c.c  |Bc/A/ GF|G>A .B.B :|

